X:1
T:[ID 1-40]
T:[ID 1-40]
T:Bezeichnung standardisiert: Menuett Men\"uet 4.
T:Urheber unbekannt Datum in der hier transkribierten schriftlichen Quelle: 1767
C:Urheber unbekannt
C:Datum in der hier transkribierten schriftlichen Quelle: 1767
L:1/8
M:3/4
K:C
V:1 treble 
V:1
 g4 B2 |{d} c4 d2 |{d} e4 (3def | e2 d2 c2 | B4 c2 | (3dcB (3^fed gB | AcBGDC | B,6 :: B4 (3ABc | %9
 B2 c2 d2 | cedcBA | (3GDB, E4 | (3Bcd d2 f2 | e2 d2 c2 | (3Bcd cEFD |{D} E6 :| !fermata!B,G, A, | %17
 B,C D | CB, F, | G,D, B,, | G,,D, F, | E,D, C, | F,G, G,, | C,G,, C,, :| %24

